icons/desktop/16/svg/find-in-page-16.svg

<svg width="16" height="16" viewBox="0 0 16 16" fill="none" xmlns="http://www.w3.org/2000/svg">
<g clip-path="url(#clip0_8069_32634)">
<path fill-rule="evenodd" clip-rule="evenodd" d="M8.0498 11.8301C7.6598 9.58708 9.58803 7.65878 11.832 8.05078C13.1049 8.27376 14.1507 9.29775 14.4248 10.5605C14.6178 11.4485 14.4248 12.2752 14.0078 12.9492L15.7803 14.7197C16.0732 15.0127 16.0733 15.4873 15.7803 15.7803C15.4883 16.0732 15.0127 16.0732 14.7197 15.7803L12.9473 14.0078C12.2733 14.4238 11.4456 14.6168 10.5576 14.4238C9.29482 14.1487 8.27181 13.1029 8.0498 11.8301ZM11.25 9.5C10.285 9.5 9.5 10.285 9.5 11.25C9.50002 12.215 10.285 13 11.25 13C12.215 13 13 12.215 13 11.25C13 10.285 12.215 9.50001 11.25 9.5Z" fill="black"/>
<path d="M6.80273 0.015625C7.31367 0.0296233 7.80015 0.238689 8.16113 0.599609L11.4062 3.84473C11.7812 4.21869 11.9921 4.7269 11.9922 5.25684L11.9941 6.81445C11.7471 6.77445 11.497 6.74902 11.25 6.74902C10.995 6.74902 10.747 6.78905 10.5 6.83105V5.49902H7.5C6.94801 5.49902 6.50001 5.05101 6.5 4.49902V1.51172C6.335 1.50772 6.156 1.49902 6 1.49902C4.85413 1.49902 3.69924 1.57281 2.56836 1.71777C1.95336 1.79677 1.5 2.33701 1.5 2.95801V12.043C1.5 12.672 1.9622 13.2052 2.5752 13.2832C4.14708 13.4842 5.74998 13.535 7.33887 13.457C7.65385 14.009 8.08079 14.4912 8.59375 14.8682C7.73184 14.9472 6.86491 15 6 15C4.795 15 3.57874 14.9235 2.38574 14.7715C1.02484 14.5984 0 13.4249 0 12.042V2.96973C0.000148657 1.60392 1.11392 0.387852 2.46973 0.21875C3.63273 0.07375 4.821 0 6 0C6.16795 0 6.49082 0.00762735 6.80273 0.015625Z" fill="black"/>
</g>
<defs>
<clipPath id="clip0_8069_32634">
<rect width="16" height="16" fill="white"/>
</clipPath>
</defs>
</svg>

<!-- This Source Code Form is subject to the terms of the Mozilla Public
   - License, v. 2.0. If a copy of the MPL was not distributed with this
   - file, You can obtain one at http://mozilla.org/MPL/2.0/. -->
<svg xmlns="http://www.w3.org/2000/svg" width="16" height="16" fill="context-fill" fill-opacity="context-fill-opacity" viewBox="0 0 16 16">
    <g clip-path="url(#clip0_8069_32634)">
        <path fill-rule="evenodd" d="M8.05 11.83a3.256 3.256 0 0 1 3.782-3.78c1.273.224 2.319 1.248 2.593 2.51a3.2 3.2 0 0 1-.417 2.39l1.772 1.77a.75.75 0 1 1-1.06 1.06l-1.773-1.772a3.2 3.2 0 0 1-2.39.416c-1.262-.275-2.285-1.321-2.507-2.594m3.2-2.33c-.965 0-1.75.785-1.75 1.75S10.285 13 11.25 13 13 12.215 13 11.25s-.785-1.75-1.75-1.75" clip-rule="evenodd" />
        <path d="M6.803.016A2 2 0 0 1 8.16.6l3.245 3.245c.375.374.586.882.586 1.412l.002 1.557a5 5 0 0 0-.744-.065c-.255 0-.503.04-.75.082V5.5h-3a1 1 0 0 1-1-1V1.512c-.165-.004-.344-.013-.5-.013-1.146 0-2.3.074-3.432.219-.615.079-1.068.619-1.068 1.24v9.085c0 .629.462 1.162 1.075 1.24 1.572.201 3.175.252 4.764.174a4.55 4.55 0 0 0 1.255 1.411C7.732 14.948 6.864 15 6 15c-1.205 0-2.421-.076-3.614-.229A2.75 2.75 0 0 1 0 12.043V2.97C0 1.604 1.114.388 2.47.219A29 29 0 0 1 6 0c.168 0 .49.008.803.016" />
    </g>
</svg>
